pp/triangle-right_print.svg

<svg viewBox="0 0 20 20" fill="none" xmlns="http://www.w3.org/2000/svg" height="1em" width="1em">
  <g opacity="0.8">
    <path d="M17.265 11.424L9.265 16.424C8.93198 16.6321 8.5 16.3927 8.5 16L8.5 6.00001C8.5 5.60729 8.93198 5.36787 9.265 5.57601L17.265 10.576C17.5783 10.7718 17.5783 11.2282 17.265 11.424Z" fill="currentColor"/>
  </g>
  <path fill-rule="evenodd" clip-rule="evenodd" d="M7.265 15.424L15.265 10.424C15.5783 10.2282 15.5783 9.77184 15.265 9.57601L7.265 4.57601C6.93198 4.36787 6.5 4.60729 6.5 5.00001L6.5 15C6.5 15.3927 6.93198 15.6321 7.265 15.424ZM7.5 14.0979L7.5 5.90213L14.0566 10L7.5 14.0979Z" fill="black"/>
</svg>

<svg viewBox="0 0 20 20" fill="none" xmlns="http://www.w3.org/2000/svg" height="1em" width="1em">
  <path d="m17.265 11.424-8 5A.5.5 0 0 1 8.5 16V6a.5.5 0 0 1 .765-.424l8 5a.5.5 0 0 1 0 .848Z" fill="currentColor" opacity=".8"/>
  <path fill-rule="evenodd" clip-rule="evenodd" d="m7.265 15.424 8-5a.5.5 0 0 0 0-.848l-8-5A.5.5 0 0 0 6.5 5v10a.5.5 0 0 0 .765.424Zm.235-1.326V5.902L14.057 10 7.5 14.098Z" fill="#000"/>
</svg>
